packages/ffe-icons/icons/open/500/sm/mfg_nest_yale_lock.svg

<svg xmlns="http://www.w3.org/2000/svg" height="20" viewBox="0 -960 960 960" width="20"><path d="M480.201-38.913q-114.027 0-193.658-79.488-79.63-79.488-79.63-193.599v-336q0-114.111 79.429-193.599 79.429-79.488 193.457-79.488 114.027 0 193.658 79.488 79.63 79.488 79.63 193.599v336q0 114.111-79.429 193.599-79.429 79.488-193.457 79.488Zm.079-83q79.003 0 134.405-55.601 55.402-55.6 55.402-134.486v-336q0-78.886-55.682-134.486-55.683-55.601-134.685-55.601-79.003 0-134.405 55.601-55.402 55.6-55.402 134.486v336q0 78.886 55.682 134.486 55.683 55.601 134.685 55.601ZM480-636q25 0 42.5-17.5T540-696q0-25-17.5-42.5T480-756q-25 0-42.5 17.5T420-696q0 25 17.5 42.5T480-636ZM371.789-480Q387-480 397.5-490.289q10.5-10.29 10.5-25.5Q408-531 397.711-541.5q-10.29-10.5-25.5-10.5Q357-552 346.5-541.711q-10.5 10.29-10.5 25.5Q336-501 346.289-490.5q10.29 10.5 25.5 10.5Zm108 0Q495-480 505.5-490.289q10.5-10.29 10.5-25.5Q516-531 505.711-541.5q-10.29-10.5-25.5-10.5Q465-552 454.5-541.711q-10.5 10.29-10.5 25.5Q444-501 454.289-490.5q10.29 10.5 25.5 10.5Zm108 0Q603-480 613.5-490.289q10.5-10.29 10.5-25.5Q624-531 613.711-541.5q-10.29-10.5-25.5-10.5Q573-552 562.5-541.711q-10.5 10.29-10.5 25.5Q552-501 562.289-490.5q10.29 10.5 25.5 10.5Zm-216 120Q387-360 397.5-370.289q10.5-10.29 10.5-25.5Q408-411 397.711-421.5q-10.29-10.5-25.5-10.5Q357-432 346.5-421.711q-10.5 10.29-10.5 25.5Q336-381 346.289-370.5q10.29 10.5 25.5 10.5Zm216 0Q603-360 613.5-370.289q10.5-10.29 10.5-25.5Q624-411 613.711-421.5q-10.29-10.5-25.5-10.5Q573-432 562.5-421.711q-10.5 10.29-10.5 25.5Q552-381 562.289-370.5q10.29 10.5 25.5 10.5Zm-108 0Q495-360 505.5-370.289q10.5-10.29 10.5-25.5Q516-411 505.711-421.5q-10.29-10.5-25.5-10.5Q465-432 454.5-421.711q-10.5 10.29-10.5 25.5Q444-381 454.289-370.5q10.29 10.5 25.5 10.5Zm-108 120Q387-240 397.5-250.289q10.5-10.29 10.5-25.5Q408-291 397.711-301.5q-10.29-10.5-25.5-10.5Q357-312 346.5-301.711q-10.5 10.29-10.5 25.5Q336-261 346.289-250.5q10.29 10.5 25.5 10.5Zm216 0Q603-240 613.5-250.289q10.5-10.29 10.5-25.5Q624-291 613.711-301.5q-10.29-10.5-25.5-10.5Q573-312 562.5-301.711q-10.5 10.29-10.5 25.5Q552-261 562.289-250.5q10.29 10.5 25.5 10.5Zm-108 0Q495-240 505.5-250.289q10.5-10.29 10.5-25.5Q516-291 505.711-301.5q-10.29-10.5-25.5-10.5Q465-312 454.5-301.711q-10.5 10.29-10.5 25.5Q444-261 454.289-250.5q10.29 10.5 25.5 10.5ZM480-480Z"/></svg>

<svg xmlns="http://www.w3.org/2000/svg" height="20" viewBox="0 -960 960 960" width="20"><path d="M480.2-38.91q-114.03 0-193.66-79.49T206.91-312v-336q0-114.11 79.43-193.6t193.46-79.49q114.03 0 193.66 79.49T753.09-648v336q0 114.11-79.43 193.6T480.2-38.91Zm.08-83q79 0 134.4-55.6 55.41-55.6 55.41-134.49v-336q0-78.89-55.69-134.49-55.68-55.6-134.68-55.6t-134.4 55.6q-55.41 55.6-55.41 134.49v336q0 78.89 55.69 134.49 55.68 55.6 134.68 55.6ZM480-636q25 0 42.5-17.5T540-696q0-25-17.5-42.5T480-756q-25 0-42.5 17.5T420-696q0 25 17.5 42.5T480-636ZM371.79-480q15.21 0 25.71-10.29t10.5-25.5q0-15.21-10.29-25.71t-25.5-10.5q-15.21 0-25.71 10.29t-10.5 25.5q0 15.21 10.29 25.71t25.5 10.5Zm108 0q15.21 0 25.71-10.29t10.5-25.5q0-15.21-10.29-25.71t-25.5-10.5q-15.21 0-25.71 10.29t-10.5 25.5q0 15.21 10.29 25.71t25.5 10.5Zm108 0q15.21 0 25.71-10.29t10.5-25.5q0-15.21-10.29-25.71t-25.5-10.5q-15.21 0-25.71 10.29t-10.5 25.5q0 15.21 10.29 25.71t25.5 10.5Zm-216 120q15.21 0 25.71-10.29t10.5-25.5q0-15.21-10.29-25.71t-25.5-10.5q-15.21 0-25.71 10.29t-10.5 25.5q0 15.21 10.29 25.71t25.5 10.5Zm216 0q15.21 0 25.71-10.29t10.5-25.5q0-15.21-10.29-25.71t-25.5-10.5q-15.21 0-25.71 10.29t-10.5 25.5q0 15.21 10.29 25.71t25.5 10.5Zm-108 0q15.21 0 25.71-10.29t10.5-25.5q0-15.21-10.29-25.71t-25.5-10.5q-15.21 0-25.71 10.29t-10.5 25.5q0 15.21 10.29 25.71t25.5 10.5Zm-108 120q15.21 0 25.71-10.29t10.5-25.5q0-15.21-10.29-25.71t-25.5-10.5q-15.21 0-25.71 10.29t-10.5 25.5q0 15.21 10.29 25.71t25.5 10.5Zm216 0q15.21 0 25.71-10.29t10.5-25.5q0-15.21-10.29-25.71t-25.5-10.5q-15.21 0-25.71 10.29t-10.5 25.5q0 15.21 10.29 25.71t25.5 10.5Zm-108 0q15.21 0 25.71-10.29t10.5-25.5q0-15.21-10.29-25.71t-25.5-10.5q-15.21 0-25.71 10.29t-10.5 25.5q0 15.21 10.29 25.71t25.5 10.5Zm.21-240Z"/></svg>
